X: 0992
T: HIGHLAND QUICK-STEP
B: Oliver Ditson "The Boston Collection of Instrumental Music" 1910 p.99 #2
F: http://conquest.imslp.info/files/imglnks/usimg/8/8f/IMSLP175643-PMLP309456-bostoncollection00bost_bw.pdf
%: 2012 John Chambers <jc:trillian.mit.edu>
N: The lengths of pickups and last bars don't add up correctly.
M: 2/4
L: 1/16
K: F
c3A |\
F2F2 G2A2 | f3ed2c2 | d3c def2 | g3f g<az2 |\
F2F2 G2A2 | f3ed2c2 | d3c d2e2 | f4 z2 :|
|: c2 |\
fa3  gf3 | df3 cA3 | ~c4 b2a2 | g4 c'3b |\
ac'3 af3 | df3 cA3 | ~c4 d2e2 | f4 :|

%%sep 1 1 500
%%sep 1 1 500
